X:1
T:Rimsky-Korsakov Harmonic Exercises, Modulations (7)
T:Rimsky-Korsakov Harmonic Exercises, Modulations (6)
T:Realizations by S. Shchetnikov
T:"Practical Manual of Harmony" (1885)
C:Realizations by S. Shchetnikov
%%score { ( 1 2 ) | ( 3 4 ) }
L:1/8
Q:1/2=120
M:6/1
K:C
V:1 treble nm="Piano" snm="Pno."
V:2 treble 
V:3 bass 
V:4 bass 
V:1
"""^Examples by Rimsky-Korsakov:""^C -- (a) -- E""^The system of kinship keys by Rimsky-Korsakov:\n\n\nKeys of the \nfirst\n degree of kinship.\n(For key \"С\" this is d, e, F, G, a, f)\n\n(For key \"a\" this is C, d, e, F, G, E)\n\n\n\nKeys of the \nsecond\n degree of kinship.\n(For key \"С\" this is A♭, A, B♭, B, D♭, D, E♭, E, g, b♭, b, c)\n(For key \"a\" this is f, f♯, g,  g♯, b♭, b, c, c♯, B♭, B, D, A)\n\n\nKeys of the \nthird\n degree of kinship.\n(For key \"С\" this is c♯,  d♯, F♯,  f♯,  g♯)\n\n(For key \"a\" this is D♭, e♭, E♭, G♭, A♭)\n\n""_C:""_a:""_{""^Modulation to the keys of the second degree of kinship\n\nthrough the keys of the first degree of kinship\n" E8 E8"""_a:""_E:""_{" E8"" E8"" ^D8"" E8 |] %1
"""^C -- (F) -- g""_C:""_F:""_{" c8 c8"""_F:""_g:""_{" c8"" c8"" d8"" _B8 |] %2
[M:9/1]"""^C -- (f) -- (E♭) -- c""_C:" c8"""_C:""_f:""_{" c8"""_f:""_E♭:""_{" c8"" _B8"" _B8"""_E♭:""_c:""_{" c8 c8 =B8 c8 |] %3
[M:6/1]"""^a -- (C) --f""_a:""_C:""_{" E8 D8 D8"""_C:""_f:""_{" G8"" G8"" F8 |] %4
[M:9/1]"""^a -- (F) -- B♭""_a:""_F:""_{" E8 E8"""_F:""_B♭:""_{" F8"" F8"" F8"" _E8"" D8"" C8"" D8 |] %5
"""^a -- (E) -- (f♯) -- A""_a:""_E:""_{" E8 ^D8"""_E:""_f♯:""_{" E8"" =D8"""_f♯:""_A:""_{" ^C8 D8 ^C8 B,8 ^C8 |] %6
[M:7/1]"""^Exercise: compose modulations in the keys of the second degree of kinship.\nRealizations:\n""^C -- (f) -- A♭""_C:" c8"""_C:""_f:""_{" c8"""_f:""_A♭:""_{" c8"" _B8"" c8"" _B8"" _A8 |] %7
[M:8/1]"""^C -- (d) -- A""_C:" E8"""_C:""_d:""_{" D8 E8"""_d:""_A:""_{" F8"" F8"" E8"" D8"" ^C8 |] %8
[M:8/1]"""^C -- (a) -- (F) -- B♭""_C:" c8"""_C:""_a:""_{" A8 ^G8"""_a:""_F:""_{" A8"" _B8"""_F:""_{""_B♭:" A8 c8 _B8 |] %9
"""^C -- (e) -- B""_C:""_e:""_{" c8 c8 B8"""_e:""_B:""_{" B8"" B8"" B8"" ^A8"" B8 |] %10
[M:5/1]"""^C -- (f) -- D♭""_C:" G8"""_C:""_f:""_{" G8"""_f:""_D♭:""_{" _A8"" _A8"" _A8 |] %11
[M:7/1]"""^C -- (e) -- D""_C:""_e:""_{" c8 c8 B8"""_e:""_D:""_{" B8"" _B8"" A8"" A8 |] %12
[M:5/1]"""^C -- (f) -- E♭""_C:""_f:""_{" G8 G8"""_f:""_{""_E♭:" F8"" F8"" _E8 |] %13
[M:11/1]"""^C -- (a) -- (F) -- b♭""_C:""_a:""_{" c8 d8"""_a:""_F:" c8"""_{" c8"""_F:""_b♭:""_{" c8 c8 _B8 _B8 _B8 A8 _B8 |] %14
[M:7/1]"""^C -- (G) -- b""_C:""_G:""_{" G8 A8 A8"""_G:""_b:""_{" B8"" B8"" ^A8"" B8 |] %15
"""^a -- (E) -- f♯""_a:""_E:""_{" A8 ^G8 ^F8"_E:""_f♯:""_{" E8 ^F8 ^E8 ^F8 |] %16
[M:6/1]"""^a -- (F) -- g""_a:""_F:""_{" A8 _B8 A8"""_F:""_g:""_{" G8"" A8"" _B8 |] %17
"""^a -- (E) -- g♯""_a:""_E:""_{" A8 A8"""_E:""_g♯:""_{" ^G8"" G8"" ^^F8"" ^G8 |] %18
[M:5/1]"""^a -- (F) -- b♭""_a:""_F:""_{" c8 c8"""_{""_F:""_b♭:" c8"" _e8"" _d8 |] %19
[M:7/1]"""^a -- (G) -- b""_a:""_G:""_{" c8 c8"""_G:""_b:""_{" B8"" B8"" B8"" ^A8"" B8 |] %20
[M:5/1]"""_a:""^a -- (G) -- c""_G:""_{" E8 ^F8"""_G:""_c:""_{" G8"" G8"" G8 |] %21
[M:5/1]"""^a -- (E) -- c♯""_a:""_E:""_{" A8 A8"""_{""_E:""_c♯:" ^G8"" ^G8"" ^G8 |] %22
[M:9/1]"""^a -- (C) -- (e) -- B""_a:""_C:""_{" E8 G8"""_C:""_e:""_{" G8"" ^F8"" ^F8"""_e:""_B:""_{" G8 ^F8 ^F8 ^F8 |] %23
[M:7/1]"""^a -- (G) -- D""_a:" c8"" d8"""_a:""_G:""_{" d8"""_G:""_D:""_{" d8"" d8"" ^c8"" d8 |] %24
V:2
"" C8"" D8"" C8 B,8 B,8 B,8 |]"" G8"" G8"" F8 G8 A8 G8 |] %2
[M:9/1] G8"" G8"" _A8 _A8 G8"" _A8"" F8"" G8"" G8 |][M:6/1]"" C8"" C8"" B,8"" C8 C8 C8 |] %4
[M:9/1]"" C8"" C8"" C8 C8 _B,8 _B,8 _B,8 A,8 _B,8 |] %5
"" C8"" B,8"" B,8 B,8"" A,8"" B,8"" A,8"" ^G,8"" A,8 |][M:7/1] G8"" G8"" _A8 _A8 _A8 G8 _A8 |] %7
[M:8/1] C8"" B,8"" ^C8"" D8 B,8 ^C8 B,8 A,8 |][M:8/1] G8"" F8"" E8"" E8 E8"" F8"" _E8"" D8 |] %9
"" G8"" ^F8"" ^F8"" G8 G8 ^F8 ^F8 ^F8 |][M:5/1] E8"" G8"" F8 _G8 F8 |] %11
[M:7/1]"" G8"" ^F8"" ^F8"" G8 E8 E8 ^F8 |][M:5/1]"" E8"" E8"" C8 D8 _E8 |] %13
[M:11/1]"" G8"" ^G8"" A8 _B8"" A8"" A8"" B8"" _G8"" F8"" F8"" F8 |] %14
[M:7/1]"" G8"" G8"" ^F8"" G8 G8 ^F8 ^F8 |]"" E8"" E8"" ^D8"""" E8"" =D8"" ^C8"" ^C8 |] %16
[M:6/1]"" E8"" E8"" F8"" E8 ^F8 G8 |]"" E8"" ^D8"" E8 E8 D8 ^D8 |][M:5/1]"" A8"" _B8"" A8 A8 _B8 |] %19
[M:7/1]"" A8"" ^F8"" G8 G8 F8 E8 D8 |][M:5/1]"" C8"" C8"" D8 =F8 _E8 |] %21
[M:5/1]"" E8"" ^D8"" E8 ^F8 E8 |][M:9/1]"" C8"" D8"" E8 E8 ^D8"" =E8"" ^D8"" ^C8"" ^D8 |] %23
[M:7/1] A8 A8"" A8"" G8 A8 G8 ^F8 |] %24
V:3
 G,8 ^G,8 A,8 ^G,8 A,8 ^G,8 |] E8 E8 F8 _E8 D8 D8 |][M:9/1] E8 G8 F8 F8 _E8 _E8 D8 D8 _E8 |] %3
[M:6/1] A,8 A,8 G,8 G,8 _B,8 _A,8 |][M:9/1] C8 _B,8 A,8 A,8 _B,8 G,8 F,8 F,8 F,8 |] %5
 A,8 A,8 ^G,8 ^G,8 A,8 ^F,8 =E,8 E,8 E,8 |][M:7/1] E8 G8 F8 F8 _E8 _D8 C8 |] %7
[M:8/1] G,8 G,8 G,8 A,8 A,8 A,8 ^G,8 E,8 |][M:8/1] E8 D8 D8 C8 C8 C8 A,8 _B,8 |] %9
 E8 E8 ^D8 E8 ^C8 ^D8 ^C8 ^D8 |][M:5/1] C8 C8 C8 C8 _D8 |][M:7/1] E8 E8 ^D8 E8 =D8 ^C8 D8 |] %12
[M:5/1] C8 _B,8 _A,8 _A,8 G,8 |][M:11/1] E8 E8 E8 E8 F8 _E8 _D8 _E8 _D8 C8 _D8 |] %14
[M:7/1] E8 _E8 D8 D8 ^C8 ^C8 D8 |] C8 B,8 A,8 ^G,8 B,8 ^G,8 A,8 |][M:6/1] C8 C8 C8 C8 C8 D8 |] %17
 C8 B,8 B,8 ^A,8 ^A,8 B,8 |][M:5/1] E8 E8 F8 F8 F8 |][M:7/1] E8 D8 D8 E8 D8 ^C8 B,8 |] %20
[M:5/1] A,8 A,8 B,8 D8 C8 |][M:5/1] C8 B,8 B,8 ^B,8 ^C8 |] %22
[M:9/1] A,8 B,8 C8 C8 B,8 B,8 B,8 ^A,8 B,8 |][M:7/1] E8 F8 ^F8 G8 F8 E8 D8 |] %24
V:4
 C,8 B,,8 A,,8 B,,8 B,,8 E,8 |] C8 _B,8 A,8 G,8 ^F,8 G,8 |] %2
[M:9/1] C,8 E,8 F,8 D,8 _E,8 _A,8 _A,8 G,8 C,8 |][M:6/1] A,8 F,8 F,8 E,8 E,8 F,8 |] %4
[M:9/1] A,8 G,8 F,8 _E,8 D,8 _E,8 F,8 F,,8 _B,,8 |] A,,8 B,,8 E,8 ^E,8 ^F,8 D,8 =E,8 E,,8 A,,8 |] %6
[M:7/1] C,8 E,8 F,8 _D,8 _E,8 _E,8 _A,,8 |][M:8/1] C,8 G,8 E,8 D,8 D,8 E,8 E,8 A,,8 |] %8
[M:8/1] C,8 D,8 E,8 A,8 G,8 F,8 F,8 _B,,8 |] C8 A,8 B,8 E,8 E,8 ^F,8 ^F,8 B,,8 |] %10
[M:5/1] C,8 E,8 F,8 _E,8 _D,8 |][M:7/1] C8 A,8 B,8 E,8 G,8 A,8 D,8 |] %12
[M:5/1] C,8 C,8 F,8 _B,,8 _E,8 |][M:11/1] C8 B,8 A,8 G,8 F,8 F,8 _G,8 _E,8 F,8 F,8 _B,,8 |] %14
[M:7/1] C,8 C,8 D,8 G,8 E,8 ^F,8 B,,8 |] A,8 B,8 B,,8 E,8 B,,8 ^C,8 ^F,8 |] %16
[M:6/1] A,8 G,8 F,8 C8 A,8 G,8 |] A,,8 B,,8 E,8 ^C,8 ^D,8 ^G,8 |][M:5/1] A,8 G,8 F,8 F,8 _B,8 |] %19
[M:7/1] A,8 D,8 G,8 E,8 ^F,8 ^F,,8 B,,8 |][M:5/1] A,,8 D,8 G,,8 B,,8 C,8 |] %21
[M:5/1] A,,8 B,,8 E,8 ^D,8 ^C,8 |][M:9/1] A,8 G,8 C,8 A,,8 B,,8 E,8 ^F,8 ^F,,8 B,,8 |] %23
[M:7/1] A,8 D8 C8 B,8 A,8 A,,8 D,8 |] %24

